resources/haticons/SVG/ad_units.svg

<!-- Generated by IcoMoon.io -->
<svg version="1.1" xmlns="http://www.w3.org/2000/svg" width="24" height="24" viewBox="0 0 24 24">
<title>ad_units</title>
<path d="M17.016 0.984h-10.031q-0.797 0-1.383 0.586t-0.586 1.43v18q0 0.844 0.586 1.43t1.383 0.586h10.031q0.797 0 1.383-0.586t0.586-1.43v-18q0-0.844-0.586-1.43t-1.383-0.586zM17.016 18.984h-10.031v-13.969h10.031v13.969zM8.016 6h7.969v2.016h-7.969v-2.016z"></path>
</svg>

<svg xmlns="http://www.w3.org/2000/svg" width="24" height="24"><path d="M17.016.984H6.985q-.797 0-1.383.586T5.016 3v18q0 .844.586 1.43t1.383.586h10.031q.797 0 1.383-.586t.586-1.43V3q0-.844-.586-1.43T17.016.984zm0 18H6.985V5.015h10.031v13.969zM8.016 6h7.969v2.016H8.016V6z"/></svg>
